!!!COM: Schubert, Franz
!!!CNT: Deutscher
!!!TXO: Deutsch
!!!OTL: "Rast (Urspruengliche Fassung)
!!!OPR: Winterreise
!!!LYR: Mu2ller, Wilhelm
!!!OPS: Opus 89
!!!ONM: No. 10a
!!!ODT: 1827/
!!NB: Vocal melody only encoded.
**kern	**silbe
*clefG2	*
*k[b-]	*
*d:	*
*M2/4	*
*MM[massig]	*
=6	=6
4r	.
8r;	.
{8a	{Nun
=7	=7
8.a	merk'
16b-	ich
8a	erst,
8a	wie
=8	=8
8.cc	mu2d'
16b-	ich
8b-}	bin,}
{8b-	{da
=9	=9
8.cc#	ich
16cc#	zur
8ee	Ruh
16dd	mich
16cc#	|
=10	=10
4dd	le-
8d}	-ge;}
8r	.
=11	=11
4r	.
8r	.
{8dd	{das
=12	=12
8.dd	Wan-
16d	-dern
8d	hielt
8e	mich
=13	=13
8.f	mun-
16g	-ter
8a}	hin}
{8b-	{auf
=14	=14
8cc	un-
8dd	-wirth
8cc	ba-
16dd	-rem
16ee	|
=15	=15
4ff	We-
8f}	-ge.}
8r	.
=16	=16
4r	.
8r	.
{8a	{Die
=17	=17
8.a	Fu2-
16a	-sse
16a	fru-
16a	-gen
16dd	nicht
16f#	nach
=18	=18
4g}	Rast,}
8r	.
{8g	{es
=19	=19
8.cc	war
16cc	zu
8.dd-	kalt
16e	zum
=20	=20
(16g	Steh-
16f)	|
8f}	-en;}
8r	.
{8f	{der
=21	=21
16e	Ru2
16ee	|
16ee	-cken
16dd	|
16cc#	fu2hl-
16gg	|
16gg	-te
16ff	|
=22	=22
16ff	kei-
16ee	|
16ee	-ne
16dd	|
4cc#}	Last,}
=23	=23
4r	.
8r	.
{8dd	{der
=24	=24
16dd	Sturm
16a	|
16f	half
16d	|
16ff	fort
16dd	|
16ee	mich
16cc#	|
=25	=25
4cc#	we-
8dd}	-hen,}
8r	.
=26	=26
4r	.
8r	.
{8d	{der
=27	=27
16d	Ru2-
16dd	|
16dd	-cken
16cc	|
16b-	fu2hl-
16ff	|
16ff	-te
16ee	|
=28	=28
16ee	kei-
16dd	|
16dd	-ne
16cc#	|
4dd}	Last,}
=29	=29
4r	.
8r	.
{8dd	{der
=30	=30
16ff	Sturm
16dd	|
16a	half
16f	|
16a	fort
16aa	|
16gg	mich
16ee	|
=31	=31
4dd	we-
8d}	-hen.}
8r	.
=36	=36
4r	.
8r;	.
{8a	{In
=37	=37
8.a	ei-
16b-	-nes
8a	Ko2h-
8a	-lers
=38	=38
8.cc	en-
16b-	-gem
8b-}	Haus}
{8b-	{hab'
=39	=39
8.cc#	Ob-
16cc#	-dach
16cc#	ich
16ee	|
16dd	ge-
16cc#	|
=40	=40
4dd	-fun-
8d}	-den;}
8r	.
=42	=42
{8dd	{doch
16d	mei-
16c#	-ne
8d	Glie-
8e	-der
=43	=43
8.f	ruh'n
16g	nicht
8a}	aus}
{8b-	{so
=44	=44
8cc	bren-
8dd-	-nen
8cc	ih-
16ddn	-re
16ee	|
=45	=45
4ff	Wun-
8f}	-den.}
8r	.
=46	=46
4r	.
8r	.
{8a	{Auch
=47	=47
8.a	du,
16b-	mein
8a	Herz,
8a	in
=48	=48
8.dd	Kampf
16f#	und
8g}	Sturm}
{8g	{so
=49	=49
8.cc	wild
16cc	und
8.dd-	so
16e	ver-
=50	=50
(16g	-we-
16f)	|
8f}	-gen,}
8r	.
{8f	{fu2hlst
=51	=51
16e	in
16ee	|
16ee	der
16dd	|
16cc#	Still'
16gg	|
16gg	erst
16ff	|
=52	=52
16ff	dei-
16ee	|
16ee	-nen
16dd	|
4cc#}	Wurm}
=53	=53
4r	.
8r	.
{8dd	{mit
=54	=54
16dd	heis-
16a	|
16f	-sem
16d	|
16ff	Stich
16dd	|
16ee	sich
16cc#	|
=55	=55
8.cc#	re-
16dd	|
8dd}	-gen,}
8r	.
=56	=56
4r	.
8r	.
{8d	{fu2hlst
=57	=57
16d	in
16dd	|
16dd	der
16cc	|
16b-	Still'
16ff	|
16ff	erst
16ee	|
=58	=58
16ee	dei-
16dd	|
16dd	-nen
16cc#	|
4dd}	Wurm}
=59	=59
4r	.
8r	.
{8dd	{mit
=60	=60
16ff	hei-
16dd	|
16a	-ssem
16f	|
16a	Stich
16aa	|
16gg	sich
16ee	|
=61	=61
4dd	re-
8d}	-gen.}
8r	.
*-	*-
